!!!COM: Music21
!!!OTL: Apaga o candil
!!!OMV: pezas_valses_apaga-o-candil_apaga-o-candil-partitura.musicxml
**kern
*part1
*staff1
*I"Bagpipes
*I'Bag
*clefG^2
*k[]
*M3/4
=1
!LO:TX:a:t=Prestissimo
*MM220
!LO:TX:a:t=[quarter]=220
2r
4ee
=||
4ee
4ff
4gg
=
2aa
4aa
=
4gg
4ff
4ee
=
2dd
4ff
=
4ff
4gg
4aa
=
2bb
4bb
=
4aa
4gg
4ff
!!linebreak:original
=
2ee
4ee
=||
4ee
4ff
4gg
=
2aa
4aa
=
4gg
4ff
4ee
=
2dd
4ff
=
4ff
4gg
4aa
=
2bb
4bb
=
4aa
4gg
4ff
=
[2.ee
!!linebreak:original
=
2.ee]
.
=||
4.ccc
8ccc
4ccc
=
4ccc
4ccc
4ccc
=
2ccc
[4bb
=
2.bb]
=
4.aa
8aa
4aa
=
4aa
4aa
4bb
=
2aa
[4gg
!!linebreak:original
=
2.gg]
=||
4.ccc
8ccc
4ccc
=
4ccc
4ccc
4ccc
=
2ccc
4bb
=
2bb
4aa
=
2aa
[4gg
=
4gg]
4bb
4gg
=
2ff
[4ee
!!linebreak:original
=
2.ee]
=||
4.ccc
8ccc
4ccc
=
4ccc
4ccc
4ccc
=
2ccc
4bb
=
2bb
4aa
=
2aa
[4gg
=
4gg]
4bb
4gg
=
2ff
[4ee
=
2ee]
4ee
==
*-
!!!system-decoration: s1,s2
